X: 12
T:Crosspatch
C:Neil Brookes
N: Last time through the tune play the last four notes (G2A2B2_d2)
i.e. as double length
N: and add d/2z/2 d/2z/2 to finish abruptly.
N: Tune originally composed for melodeon.
M:4/4
L:1/4
Q:1/4=240
K:Dmix
| "D"d2 "D"A>B|"Am"cB"D"AG|"D"F/2G/2A/2B/2 "Am"c A |"G"B G "D"F 
D|"D"zd "D"A>B|"Am"cB"D"AG|"D"F/2G/2A/2B/2 "Am"c A|"G"G/2z/2 G2z|
| "D"d2 "D"A>B|"Am"cB"D"AG|"D"F/2G/2A/2B/2 "Am"c A |"G"B G "D"F 
D|"D"zd "D"A>B|"Am"cB"D"AG|"D"F/2G/2A/2B/2 "Am"c A|"G"G/2z/2 G2z|
|"D"FD"D"AD|"G"BD"D"AD|"Am"E/2D/2E/2F/2"G"GF|"Am"ED"Em"EG|"D"FD"D"AD|"
G"BD"D"AD|"D"A>B"Am"cB|"G"G/2z/2 G2z|
|"D"FD"D"AD|"G"BD"D"AD|"Am"E/2D/2E/2F/2"G"GF|"Am"ED"Em"EG|"D"FD"D"AD|"
G"BD"D"AD|"D"A>B"Am"cB|"G"GA"G"B_d|

